icons/wechat-line.svg

<svg viewBox="0 0 24 24" fill="currentColor" xmlns="http://www.w3.org/2000/svg">
    <path d="M10.0014 14.6757C10.0011 14.6551 10.001 14.6345 10.001 14.6138C10.001 12.1055 12.0175 9.99564 14.7539 9.38092C14.3904 7.07873 11.9602 5.19995 8.90098 5.19995C5.58037 5.19995 3.00098 7.41344 3.00098 9.9793C3.00098 10.9487 3.36131 11.88 4.04082 12.6781C4.0728 12.7157 4.12443 12.7717 4.19342 12.8427C4.78537 13.4517 5.13709 14.2457 5.19546 15.0805C5.90857 14.6683 6.74285 14.5123 7.55832 14.6392C7.72416 14.665 7.85986 14.6847 7.96345 14.6982C8.27111 14.7383 8.58419 14.7586 8.90098 14.7586C9.27825 14.7586 9.64595 14.7301 10.0014 14.6757ZM10.4581 16.627C9.95467 16.7133 9.43399 16.7586 8.90098 16.7586C8.49441 16.7586 8.09502 16.7323 7.70499 16.6815C7.58312 16.6656 7.4317 16.6436 7.25073 16.6154C6.87693 16.5572 6.49436 16.6321 6.1713 16.8268L4.26653 17.9745C4.12052 18.0646 3.94891 18.1057 3.77733 18.0916C3.33814 18.0554 3.01178 17.6744 3.04837 17.2405L3.19859 15.4596C3.23664 15.0086 3.07664 14.5632 2.75931 14.2367C2.66182 14.1364 2.5814 14.0491 2.51802 13.9747C1.56406 12.8542 1.00098 11.4732 1.00098 9.9793C1.00098 6.23517 4.53793 3.19995 8.90098 3.19995C12.9601 3.19995 16.3041 5.82699 16.7504 9.20788C20.1225 9.36136 22.801 11.723 22.801 14.6138C22.801 15.8068 22.3448 16.9097 21.572 17.8044C21.5206 17.8639 21.4555 17.9336 21.3765 18.0137C21.1194 18.2744 20.9898 18.6301 21.0206 18.9903L21.1423 20.4125C21.172 20.759 20.9076 21.0632 20.5518 21.0921C20.4128 21.1034 20.2738 21.0706 20.1555 20.9986L18.6124 20.0821C18.3506 19.9266 18.0407 19.8668 17.7379 19.9133C17.5913 19.9358 17.4686 19.9533 17.3699 19.966C17.0539 20.0066 16.7303 20.0277 16.401 20.0277C13.7074 20.0277 11.4025 18.6201 10.4581 16.627ZM17.4346 17.9364C18.0019 17.8494 18.5793 17.911 19.1105 18.1111C19.2492 17.5503 19.5373 17.0304 19.9524 16.6094C20.0027 16.5585 20.0388 16.5198 20.0584 16.4971C20.5467 15.9318 20.801 15.2839 20.801 14.6138C20.801 12.8095 18.8983 11.2 16.401 11.2C13.9037 11.2 12.001 12.8095 12.001 14.6138C12.001 16.4181 13.9037 18.0277 16.401 18.0277C16.6424 18.0277 16.8809 18.0124 17.115 17.9823C17.1957 17.972 17.3029 17.9566 17.4346 17.9364Z"/>
</svg>

<svg xmlns="http://www.w3.org/2000/svg" viewBox="0 0 24 24">
    <g fill-rule="evenodd">
        <path fill="none" d="M0 0h24v24H0z"/>
        <path fill-rule="nonzero" d="M10 14.676v-.062c0-2.508 2.016-4.618 4.753-5.233C14.389 7.079 11.959 5.2 8.9 5.2 5.58 5.2 3 7.413 3 9.98c0 .969.36 1.9 1.04 2.698.032.038.083.094.152.165a3.568 3.568 0 0 1 1.002 2.238 3.612 3.612 0 0 1 2.363-.442c.166.026.302.046.405.06A7.254 7.254 0 0 0 10 14.675zm.457 1.951a9.209 9.209 0 0 1-2.753.055 19.056 19.056 0 0 1-.454-.067 1.612 1.612 0 0 0-1.08.212l-1.904 1.148a.806.806 0 0 1-.49.117.791.791 0 0 1-.729-.851l.15-1.781a1.565 1.565 0 0 0-.439-1.223 5.537 5.537 0 0 1-.241-.262C1.563 12.855 1 11.473 1 9.979 1 6.235 4.537 3.2 8.9 3.2c4.06 0 7.403 2.627 7.85 6.008 3.372.153 6.05 2.515 6.05 5.406 0 1.193-.456 2.296-1.229 3.19-.051.06-.116.13-.195.21a1.24 1.24 0 0 0-.356.976l.121 1.423a.635.635 0 0 1-.59.68.66.66 0 0 1-.397-.094l-1.543-.917a1.322 1.322 0 0 0-.874-.169c-.147.023-.27.04-.368.053-.316.04-.64.062-.969.062-2.694 0-4.998-1.408-5.943-3.401zm6.977 1.31a3.325 3.325 0 0 1 1.676.174 3.25 3.25 0 0 1 .841-1.502c.05-.05.087-.09.106-.112.489-.565.743-1.213.743-1.883 0-1.804-1.903-3.414-4.4-3.414-2.497 0-4.4 1.61-4.4 3.414s1.903 3.414 4.4 3.414c.241 0 .48-.016.714-.046.08-.01.188-.025.32-.046z"/>
    </g>
</svg>
